X:1
T:Title
%%score { ( 1 5 ) | ( 2 3 4 ) }
L:1/8
M:4/4
K:Ab
V:1 treble nm="Grand Piano"
V:5 treble 
V:2 bass 
V:3 bass 
V:4 bass 
V:1
 z4 z2[Q:1/4=100] [CE]2 | [CA]6 (3BAB | [Ec]6 (3Bcd | c3 B [CA]2 (3Bcd | c3 B [CA]2 B2 | %5
 c2 B2 c2 [EA]2 | [EB]6 [G,E]2 | [A,EA]2 [CEA]2 [A,EA]2 (3BAB | c3 B c2 e2 | B2 A2 G2 (3[=DF]GA | %10
 z4 z2 e2 | [EG]2 (3[=DF]GA [B,EG]2 [A,DF]2 |[M:3/4] [G,E]6 |[M:1/4] z2 |[M:4/4] d6 z2 | [Ec]6 z2 | %16
 B6 z2 | e2 d2 c2 B2 | c6 z2 | [CA]6 z2 | [Ed]6 z2 | B6 z2 | e6 z2 | [Fd]6 z2 | c2 (3Bcd c2 B2 | %25
[M:3/4] [CEA]6 |] %26
V:2
 z4 z2 [A,,A,]2 | z4 z2 [E,E]2 | z4 z2 [E,E]2 | z4 z2 [E,E]2 | [A,E]3 [E,G,D] [A,,A,]2 [E,G,E]2 | %5
 [A,E]2 [E,G,E]2 [A,E]2 [C,A,]2 | [E,G,]6 E,2 | z4 z2 [E,E]2 | %8
 [A,E]3 [E,G,E][K:treble] [A,E]2 [A,CE]2 | [G,E]2 [A,CF]2 [B,E]2[K:bass] (3z E[K:treble]F | %10
 E3 F [EG]2 E-[A,E] | z2 B,2[K:bass] z4 |[M:3/4] E,6 |[M:1/4][K:treble] E2 |[M:4/4] B6[K:bass] z2 | %15
 A,2 A,>A, A,2[K:treble] E>E | G6[K:bass] z2 | E6 z2 | A,2 z2 z2 (3DED | A,,2 A,,2 A,,2 A,,2 | %20
 z4 z2 [E,E]2 | E6 z2 | E6 A,2 | [D,A,]2 D,2 D,2 [D,A,]2 | [E,A,E]2 (3G,A,B, [E,A,E]2 [E,DE]2 | %25
[M:3/4] A,,6 |] %26
V:3
 x8 | [A,,A,]6 (3G,F,G, | A,2 A,2 A,2 (3G,A,B, | [A,E]3 [E,G,D] [A,,A,]2 (3G,A,B, | x8 | x8 | x8 | %7
 C,2 A,,2 C,2 (3G,F,G, | x4[K:treble] x4 | z4 z2[K:bass] B,2[K:treble] | [E,-B,]4 E,2 .[G,B,]2 | %11
 B,2 (3z EF[K:bass] B,,2 B,,2 |[M:3/4] x6 |[M:1/4][K:treble] x2 |[M:4/4] z2[K:bass] E,2 E,2 E,>E, | %15
 x6[K:treble] x2 | z2[K:bass] E,>E, E,2 [G,B,]>[G,B,] | [A,C]2 [G,B,]2 A,2 [E,G,E]2 | E6 [E,G,]2 | %19
 x8 | [E,B,]2 E,2 E,2 (3A,B,A, | [E,G,]2 E,2 E,2 [G,B,]2 | [A,C]2 A,2 A,2 (3z DC | x8 | %24
 z2 [E,E]2 z4 |[M:3/4] x6 |] %26
V:4
 x8 | x8 | x8 | x8 | x8 | x8 | x8 | x8 | x4[K:treble] x4 | z4 z2[K:bass] B,,2[K:treble] | x8 | %11
 x4[K:bass] x4 |[M:3/4] x6 |[M:1/4][K:treble] x2 |[M:4/4] x2[K:bass] x6 | x6[K:treble] x2 | %16
 x2[K:bass] x6 | x8 | x8 | x8 | x8 | x8 | x8 | x8 | x8 |[M:3/4] x6 |] %26
V:5
 x8 | x8 | x8 | x8 | x8 | x8 | x8 | x8 | x8 | x8 | G3 A B2 z C | x8 |[M:3/4] x6 |[M:1/4] x2 | %14
[M:4/4] z2 G,2 G,2 [G,E]>[G,E] | x8 | z2 E>E E2 E>E | x8 | z2 A,2 A,2 (3BcB | A,2 A,2 A,2 [CE]2 | %20
 z2 B,2 B,2 (3cdc | z2 G,2 G,2 E2 | z2 C2 C2 (3[Ec]BA | z2 A,2 A,2 [Fd]2 | x8 |[M:3/4] x6 |] %26

